X:896
T:Reel 896
M:4/4
K:Amaj
L:1/8
A,>C (3CB,C ECCC|E>A (3AGA c2BA|G<B,G,B, A,G,B,G,|DB,GE DCB,A,|C>G, (3A,A,A, CA,EC|CFGA EDCA,C|D2GB A2GE|DB,G,B, D2|E2|A2cA AcBA|EDEF GABG|EAAG AcBA|GABG EAAG|EAAG AcBA|GAGA AGAB|cABA GAGF|EDCB, A,2|
